build-source/logos/france2.default.svg

<svg xmlns="http://www.w3.org/2000/svg" width="510.5" viewBox="-0.5 -7.721 510.50199 816.43923"><defs><linearGradient x1="856.24" y1="24.427" x2="925.52" y2="816.38" id="0" gradientUnits="userSpaceOnUse"><stop stop-color="#f37364"/><stop offset=".15" stop-color="#f16152"/><stop offset=".5" stop-color="#f26758"/><stop offset="1" stop-color="#ed1b2f"/></linearGradient><linearGradient y1="155.51" x2="0" y2="644.47" id="1" gradientUnits="userSpaceOnUse"><stop offset=".5" stop-color="#fff"/><stop offset="1" stop-color="#bfbfbf"/></linearGradient></defs><g transform="translate(-630)"><path d="m629.5 683.94c0 11 8.804 21.87 19.563 24.16l471.37 100.19c10.761 2.287 19.563-4.842 19.563-15.842v-783.9c0-11-8.804-18.13-19.563-15.842l-471.37 100.19c-10.759 2.287-19.563 13.158-19.563 24.16v566.88" fill="#ed1b2f"/><path d="m635 677.11c0 11 8.804 21.87 19.563 24.16l459.88 97.75c10.76 2.287 19.563-4.842 19.563-15.842v-765.34c0-11-8.804-18.13-19.563-15.842l-459.88 97.75c-10.759 2.286-19.563 13.158-19.563 24.16v553.21" fill="url(#0)"/><path d="m633.96 112.97c0 0 449.84-53.55 506.03 68.02v244.63c0 0-3.381 147.56-72.47 169.7l-226.66 48.1c0 0-196.49 65.773-209.22-352.32-5.93-136.05 2.311-178.13 2.311-178.13" fill="#ed1b2f"/><path d="m1140 530.84h-223.31c0 0 31.01-17.461 84.73-47.27 92.2-51.17 126.45-91.17 138.58-130.52v-93.54c-18.865-63.62-80.8-104.02-185.9-104.02-104.05 0-203.71 40.942-196.45 186.19 0 0 129.41-.37 131.27 0 0-59.805 11.646-91.16 62.6-91.16 44.41 0 65.772 19.867 65.772 54.07 0 32.535-29.18 54.35-57.735 73.64-39.35 26.563-57.56 38.664-121.56 82.04-79.45 53.875-84.83 92.67-84.83 184.14.151.106 334.6.023 386.84 0v-113.57z" fill="url(#1)"/></g></svg>

<?xml version="1.0" encoding="UTF-8" standalone="no"?>
<!-- Created with Inkscape (http://www.inkscape.org/) -->

<svg
   xmlns:dc="http://purl.org/dc/elements/1.1/"
   xmlns:cc="http://creativecommons.org/ns#"
   xmlns:rdf="http://www.w3.org/1999/02/22-rdf-syntax-ns#"
   xmlns:svg="http://www.w3.org/2000/svg"
   xmlns="http://www.w3.org/2000/svg"
   xmlns:xlink="http://www.w3.org/1999/xlink"
   xmlns:inkscape="http://www.inkscape.org/namespaces/inkscape"
   version="1.1"
   width="510.50198"
   height="816.43921"
   viewBox="-0.5 -7.721 510.50199 816.43923"
   id="Calque_1"
   xml:space="preserve"><metadata
   id="metadata229"><rdf:RDF><cc:Work
       rdf:about=""><dc:format>image/svg+xml</dc:format><dc:type
         rdf:resource="http://purl.org/dc/dcmitype/StillImage" /><dc:title /></cc:Work></rdf:RDF></metadata><defs
   id="defs227">
	
	
	
	
	
	
<linearGradient
   x1="3372.2368"
   y1="1359.9609"
   x2="3441.5239"
   y2="568.00562"
   id="linearGradient3524"
   xlink:href="#SVGID_1_"
   gradientUnits="userSpaceOnUse"
   gradientTransform="matrix(1,0,0,-1,4,1384.3867)" /><linearGradient
   x1="3467.5728"
   y1="1166.3867"
   x2="3467.5728"
   y2="710.26758"
   id="linearGradient3526"
   xlink:href="#SVGID_2_"
   gradientUnits="userSpaceOnUse"
   gradientTransform="matrix(1,0,0,-1,4,1384.3867)" /><linearGradient
   x1="2742.2368"
   y1="1359.96"
   x2="2811.5239"
   y2="568.00513"
   id="linearGradient3528"
   xlink:href="#SVGID_3_"
   gradientUnits="userSpaceOnUse"
   gradientTransform="matrix(1,0,0,-1,4,1384.3867)" /><linearGradient
   x1="2837.6958"
   y1="1228.9727"
   x2="2837.6958"
   y2="739.91888"
   id="linearGradient3530"
   xlink:href="#SVGID_4_"
   gradientUnits="userSpaceOnUse"
   gradientTransform="matrix(1,0,0,-1,4,1384.3867)" /><linearGradient
   x1="2112.2378"
   y1="1359.96"
   x2="2181.5249"
   y2="568.00513"
   id="linearGradient3532"
   xlink:href="#SVGID_5_"
   gradientUnits="userSpaceOnUse"
   gradientTransform="matrix(1,0,0,-1,4,1384.3867)" /><linearGradient
   x1="2200.3208"
   y1="1228.9209"
   x2="2200.3208"
   y2="739.9209"
   id="linearGradient3534"
   xlink:href="#SVGID_6_"
   gradientUnits="userSpaceOnUse"
   gradientTransform="matrix(1,0,0,-1,4,1384.3867)" /><linearGradient
   x1="1482.2363"
   y1="1359.9609"
   x2="1551.5233"
   y2="568.0061"
   id="linearGradient3536"
   xlink:href="#SVGID_7_"
   gradientUnits="userSpaceOnUse"
   gradientTransform="matrix(1,0,0,-1,4,1384.3867)" /><linearGradient
   x1="1577.625"
   y1="1228.6318"
   x2="1577.625"
   y2="739.92291"
   id="linearGradient3538"
   xlink:href="#SVGID_8_"
   gradientUnits="userSpaceOnUse"
   gradientTransform="matrix(1,0,0,-1,4,1384.3867)" /><linearGradient
   x1="852.23682"
   y1="1359.96"
   x2="921.52368"
   y2="568.00562"
   id="linearGradient3540"
   xlink:href="#SVGID_9_"
   gradientUnits="userSpaceOnUse"
   gradientTransform="matrix(1,0,0,-1,4,1384.3867)" /><linearGradient
   x1="942.58148"
   y1="1228.8809"
   x2="942.58148"
   y2="739.91412"
   id="linearGradient3542"
   xlink:href="#SVGID_10_"
   gradientUnits="userSpaceOnUse"
   gradientTransform="matrix(1,0,0,-1,4,1384.3867)" /><linearGradient
   x1="222.2368"
   y1="1359.96"
   x2="291.5238"
   y2="568.00562"
   id="linearGradient3544"
   xlink:href="#SVGID_11_"
   gradientUnits="userSpaceOnUse"
   gradientTransform="matrix(1,0,0,-1,4,1384.3867)" /><linearGradient
   x1="335.88281"
   y1="186.5298"
   x2="335.88281"
   y2="674.12061"
   id="linearGradient3546"
   xlink:href="#SVGID_12_"
   gradientUnits="userSpaceOnUse" /></defs>

<g
   transform="translate(-630,1.132535e-4)"
   id="France_2">
		<g
   id="g164">
			<path
   d="m 629.5,683.941 c 0,11 8.804,21.87 19.563,24.157 l 471.373,100.193 c 10.761,2.287 19.563,-4.842 19.563,-15.842 V 8.548 c 0,-11 -8.804,-18.129 -19.563,-15.842 L 649.063,92.9 C 638.304,95.187 629.5,106.058 629.5,117.058 v 566.883 z"
   inkscape:connector-curvature="0"
   id="path166"
   style="fill:#ed1b2f" />
		</g>
		<g
   id="g168">
			
				<linearGradient
   x1="852.23682"
   y1="1359.96"
   x2="921.52368"
   y2="568.00562"
   id="SVGID_9_"
   gradientUnits="userSpaceOnUse"
   gradientTransform="matrix(1,0,0,-1,4,1384.3867)">
				<stop
   id="stop171"
   style="stop-color:#f37364;stop-opacity:1"
   offset="0" />
				<stop
   id="stop173"
   style="stop-color:#f16152;stop-opacity:1"
   offset="0.15000001" />
				<stop
   id="stop175"
   style="stop-color:#f26758;stop-opacity:1"
   offset="0.5" />
				<stop
   id="stop177"
   style="stop-color:#ed1b2f;stop-opacity:1"
   offset="1" />
			</linearGradient>
			<path
   d="m 635,677.106 c 0,11 8.804,21.87 19.563,24.157 l 459.875,97.749 c 10.76,2.287 19.563,-4.842 19.563,-15.842 V 17.828 c 0,-11 -8.804,-18.129 -19.563,-15.842 L 654.563,99.736 C 643.804,102.022 635,112.894 635,123.894 v 553.212 z"
   inkscape:connector-curvature="0"
   id="path179"
   style="fill:url(#linearGradient3540)" />
		</g>
		<path
   d="m 633.957,112.973 c 0,0 449.839,-53.555 506.035,68.021 l 0.01,244.633 c 0,0 -3.381,147.555 -72.47,169.701 L 840.87,643.431 c 0,0 -196.492,65.773 -209.223,-352.325 -5.93,-136.053 2.311,-178.133 2.311,-178.133 z"
   inkscape:connector-curvature="0"
   id="path181"
   style="fill:#ed1b2f" />
		
			<linearGradient
   x1="942.58148"
   y1="1228.8809"
   x2="942.58148"
   y2="739.91412"
   id="SVGID_10_"
   gradientUnits="userSpaceOnUse"
   gradientTransform="matrix(1,0,0,-1,4,1384.3867)">
			<stop
   id="stop184"
   style="stop-color:#ffffff;stop-opacity:1"
   offset="0.5" />
			<stop
   id="stop186"
   style="stop-color:#bfbfbf;stop-opacity:1"
   offset="1" />
		</linearGradient>
		<path
   d="M 1139.997,530.844 H 916.685 c 0,0 31.011,-17.461 84.729,-47.266 92.2,-51.167 126.452,-91.167 138.583,-130.516 v -93.541 c -18.865,-63.62 -80.795,-104.016 -185.904,-104.016 -104.054,0 -203.706,40.942 -196.452,186.195 0,0 129.411,-0.37 131.271,0 0,-59.805 11.646,-91.156 62.604,-91.156 44.412,0 65.772,19.867 65.772,54.067 0,32.535 -29.177,54.354 -57.735,73.636 -39.348,26.563 -57.564,38.664 -121.563,82.036 -79.448,53.875 -84.825,92.667 -84.825,184.136 0.151,0.106 334.602,0.023 386.837,0 V 530.844 h 0 z"
   inkscape:connector-curvature="0"
   id="path188"
   style="fill:url(#linearGradient3542)" />
	</g>
</svg>
